src/assets/hub-configuracion.svg

<?xml version="1.0" encoding="UTF-8" standalone="no"?>
<svg
   xmlns:dc="http://purl.org/dc/elements/1.1/"
   xmlns:cc="http://creativecommons.org/ns#"
   xmlns:rdf="http://www.w3.org/1999/02/22-rdf-syntax-ns#"
   xmlns:svg="http://www.w3.org/2000/svg"
   xmlns="http://www.w3.org/2000/svg"
   xmlns:sodipodi="http://sodipodi.sourceforge.net/DTD/sodipodi-0.dtd"
   xmlns:inkscape="http://www.inkscape.org/namespaces/inkscape"
   version="1.1"
   x="0px"
   y="0px"
   viewBox="0 0 48 48"
   enable-background="new 0 0 48 48"
   xml:space="preserve"
   id="svg2"
   inkscape:version="0.91 r13725"
   sodipodi:docname="hub-configuracion.svg"><metadata
     id="metadata14"><rdf:RDF><cc:Work
         rdf:about=""><dc:format>image/svg+xml</dc:format><dc:type
           rdf:resource="http://purl.org/dc/dcmitype/StillImage" /></cc:Work></rdf:RDF></metadata><defs
     id="defs12" /><sodipodi:namedview
     pagecolor="#ffffff"
     bordercolor="#666666"
     borderopacity="1"
     objecttolerance="10"
     gridtolerance="10"
     guidetolerance="10"
     inkscape:pageopacity="0"
     inkscape:pageshadow="2"
     inkscape:window-width="1855"
     inkscape:window-height="1056"
     id="namedview10"
     showgrid="false"
     inkscape:zoom="19.145833"
     inkscape:cx="14.964091"
     inkscape:cy="24"
     inkscape:window-x="65"
     inkscape:window-y="24"
     inkscape:window-maximized="1"
     inkscape:current-layer="g4148" /><ellipse
     style="opacity:0.96700003;fill:#00d1b2;fill-opacity:1;stroke:none;stroke-width:2.70000005;stroke-miterlimit:4;stroke-dasharray:none;stroke-opacity:0.90196078"
     id="path5981"
     cx="23.999998"
     cy="24"
     rx="23.890522"
     ry="23.974215" /><g
     id="g4148"
     transform="matrix(0.87544444,0,0,0.87544444,3.620021,3.1421059)"><g
       id="g4137"
       transform="matrix(0.96188267,0,0,0.96188267,0.46735153,0.88498496)"><path
         style="fill:#ccf6f0;fill-opacity:1"
         inkscape:connector-curvature="0"
         d="m 42,26 -36,0 0,-4 36,0 0,4 z M 42,8 6,8 l 0,4 36,0 0,-4 z m 0,28 -36,0 0,4 36,0 0,-4 z"
         id="path4" /><path
         inkscape:connector-curvature="0"
         d="m 18,12 -12,0 0,-4 12,0 0,4 z m -4,24 -8,0 0,4 8,0 0,-4 z m 17,-14 -25,0 0,4 25,0 0,-4 z"
         id="path6"
         style="fill:#696969" /><path
         inkscape:connector-curvature="0"
         d="m 20,14 -3,0 c -0.5,0 -1,-0.4 -1,-1 l 0,-6 c 0,-0.6 0.5,-1 1,-1 l 3,0 c 0.5,0 1,0.4 1,1 l 0,6 c 0,0.6 -0.5,1 -1,1 z m -3,27 0,-6 c 0,-0.5 -0.5,-1 -1,-1 l -3,0 c -0.6,0 -1,0.5 -1,1 l 0,6 c 0,0.5 0.4,1 1,1 l 3,0 c 0.5,0 1,-0.5 1,-1 z m 17,-14 0,-6 c 0,-0.5 -0.5,-1 -1,-1 l -3,0 c -0.5,0 -1,0.5 -1,1 l 0,6 c 0,0.5 0.5,1 1,1 l 3,0 c 0.5,0 1,-0.5 1,-1 z"
         id="path8"
         style="fill:#000000" /></g></g></svg>

<svg version="1.1" xmlns="http://www.w3.org/2000/svg" xmlns:xlink="http://www.w3.org/1999/xlink" x="0px" y="0px" viewBox="0 0 48 48" enable-background="new 0 0 48 48" xml:space="preserve">
<path fill="#CFD8DC" d="M42,26H6v-4h36V26z M42,8H6v4h36V8z M42,36H6v4h36V36z"></path>
<path fill="#FF6D00" d="M18,12H6V8h12V12z M14,36H6v4h8V36z M31,22H6v4h25V22z"></path>
<path fill="#BF360C" d="M20,14h-3c-0.5,0-1-0.4-1-1V7c0-0.6,0.5-1,1-1h3c0.5,0,1,0.4,1,1v6C21,13.6,20.5,14,20,14z M17,41v-6
	c0-0.5-0.5-1-1-1h-3c-0.6,0-1,0.5-1,1v6c0,0.5,0.4,1,1,1h3C16.5,42,17,41.5,17,41z M34,27v-6c0-0.5-0.5-1-1-1h-3c-0.5,0-1,0.5-1,1v6
	c0,0.5,0.5,1,1,1h3C33.5,28,34,27.5,34,27z"></path>
</svg>
